polaris-icons/icons/new-icons/PageDownMajor.svg

<svg width="20" height="20" viewBox="0 0 20 20" fill="none" xmlns="http://www.w3.org/2000/svg">
<path fill-rule="evenodd" clip-rule="evenodd" d="M5.5 5.25C5.5 4.55964 6.05964 4 6.75 4H9V7.75C9 8.7165 9.7835 9.5 10.75 9.5H14.5V10.25C14.5 10.6642 14.8358 11 15.25 11C15.6642 11 16 10.6642 16 10.25V8.75C16 8.55109 15.921 8.36032 15.7803 8.21967L10.2803 2.71967C10.1397 2.57902 9.94891 2.5 9.75 2.5H6.75C5.23122 2.5 4 3.73122 4 5.25V14.75C4 16.2688 5.23122 17.5 6.75 17.5H10C10.4142 17.5 10.75 17.1642 10.75 16.75C10.75 16.3358 10.4142 16 10 16H6.75C6.05964 16 5.5 15.4404 5.5 14.75V5.25ZM13.4393 8L10.5 5.06066V7.75C10.5 7.88807 10.6119 8 10.75 8H13.4393Z" fill="#4A4A4A"/>
<path d="M15 12.5C15 12.0858 14.6642 11.75 14.25 11.75C13.8358 11.75 13.5 12.0858 13.5 12.5V15.4393L12.7803 14.7197C12.4874 14.4268 12.0126 14.4268 11.7197 14.7197C11.4268 15.0126 11.4268 15.4874 11.7197 15.7803L13.7197 17.7803C14.0126 18.0732 14.4874 18.0732 14.7803 17.7803L16.7803 15.7803C17.0732 15.4874 17.0732 15.0126 16.7803 14.7197C16.4874 14.4268 16.0126 14.4268 15.7197 14.7197L15 15.4393V12.5Z" fill="#4A4A4A"/>
</svg>

<svg viewBox="0 0 20 20" xmlns="http://www.w3.org/2000/svg"><path fill-rule="evenodd" d="M5.5 5.25c0-.69.56-1.25 1.25-1.25h2.25v3.75c0 .966.784 1.75 1.75 1.75h3.75v.75a.75.75 0 0 0 1.5 0v-1.5a.75.75 0 0 0-.22-.53l-5.5-5.5a.75.75 0 0 0-.53-.22h-3a2.75 2.75 0 0 0-2.75 2.75v9.5a2.75 2.75 0 0 0 2.75 2.75h3.25a.75.75 0 0 0 0-1.5h-3.25c-.69 0-1.25-.56-1.25-1.25v-9.5Zm7.94 2.75-2.94-2.94v2.69c0 .138.112.25.25.25h2.69Z" fill="#5C5F62"/><path d="M15 12.5a.75.75 0 0 0-1.5 0v2.94l-.72-.72a.75.75 0 1 0-1.06 1.06l2 2a.75.75 0 0 0 1.06 0l2-2a.75.75 0 1 0-1.06-1.06l-.72.72v-2.94Z" fill="#5C5F62"/></svg>
